X:3
T:Cumha Mhic Criomain
T:MacCrimmon's Lament
Z:Jack Campin, http://www.campin.me.uk/
F:Jack Campin's Nine-Note Tunebook
% last edit 03-02-2013
B:A' Choisir-Chuil (The St Columba Collection of Gaelic Songs)
M:6/8
L:1/8
Q:3/8=36
K:C
D|A2G  A2D|ABA G<E\
D|A2G  A2E|GEC E<D
E|A2G  A2D|dcB A<D\
E|G>AG E2c|ECD E<D||
C|G2C  A2C|G2E D<C\
C|C>DC c2G|c2A A<G
G|G>AB c2G|A2A G<E\
C|F>EF G2E|D2E D<C|]

